X:1
T:Title
%%score 1 { 2 | 3 }
L:1/8
Q:1/4=97
M:3/4
K:E
V:1 treble nm="Grand Piano, Staff"
V:2 bass nm="Choir Pad, Greenwell, 88.87"
V:3 bass 
V:1
 E2 [EG][EG] [EG]2 | [EB]2 [DB][DA] [DA]2 | [EG]2 [DF][DF] [DF]2 | [Dc]2 [Ec][EB] [EB]2 | %4
w: By~William~James~Kirkpatrick,~1885 * * *||||
 [EA]2 [EG][GB] [Ge]2 | [GB]2 [Bd][Ac] [Ac]2 | [FA][CF] [B,E][B,E] [EG]2 | [DF]2 [DF]2 E2- | E6 |] %9
w: |||||
V:2
 G,2 B,B, B,2 | B,2 B,B, B,2 | B,2 B,B, B,2 | A,2 A,G, G,2 | C2 B,B, B,2 | E2 EE E2 | %6
 C[K:bass]A, G,G, B,2 | A,2 A,2 G,2- | G,6 |] %9
V:3
 E,2 E,E, E,2 | G,2 F,F, F,2 | E,2 B,,B,, B,,2 | B,,2 E,E, E,2 | E,2 E,E, E,2 | E,2 A,A, A,2 | %6
 A,,2 B,,B,, B,,2 | B,,2 E,2 E,2- | E,6 |] %9

